app/client/src/assets/icons/blueprintjs/16px/array-timestamp.svg

<?xml version="1.0" encoding="UTF-8"?>
<svg width="16px" height="16px" viewBox="0 0 16 16" version="1.1" xmlns="http://www.w3.org/2000/svg" xmlns:xlink="http://www.w3.org/1999/xlink">
    <title>array-timestamp</title>
    <g stroke-width="1" fill-rule="evenodd">
        <path d="M15,0 C15.5128358,0 15.9355072,0.38604019 15.9932723,0.883378875 L16,1 L16,15 C16,15.5128358 15.6139598,15.9355072 15.1166211,15.9932723 L15,16 L12,16 C11.4477153,16 11,15.5522847 11,15 C11,14.4871642 11.3860402,14.0644928 11.8833789,14.0067277 L12,14 L14,14 L14,2 L12,2 C11.4871642,2 11.0644928,1.61395981 11.0067277,1.11662113 L11,1 C11,0.487164161 11.3860402,0.0644928393 11.8833789,0.00672773133 L12,0 L15,0 Z M4,0 C4.55228475,0 5,0.44771525 5,1 C5,1.51283584 4.61395981,1.93550716 4.11662113,1.99327227 L4,2 L2,2 L2,14 L4,14 C4.51283584,14 4.93550716,14.3860402 4.99327227,14.8833789 L5,15 C5,15.5128358 4.61395981,15.9355072 4.11662113,15.9932723 L4,16 L1,16 C0.487164161,16 0.0644928393,15.6139598 0.00672773133,15.1166211 L0,15 L0,1 C0,0.487164161 0.38604019,0.0644928393 0.883378875,0.00672773133 L1,0 L4,0 Z M8,3 C10.7614237,3 13,5.23857625 13,8 C13,10.7614237 10.7614237,13 8,13 C5.23857625,13 3,10.7614237 3,8 C3,5.23857625 5.23857625,3 8,3 Z M8,4 C5.790861,4 4,5.790861 4,8 C4,10.209139 5.790861,12 8,12 C10.209139,12 12,10.209139 12,8 C12,5.790861 10.209139,4 8,4 Z M10.3535534,5.64644661 C10.5271197,5.82001296 10.5464049,6.08943736 10.4114088,6.2843055 L10.3535534,6.35355339 L8.35355339,8.35355339 C8.17998704,8.52711974 7.91056264,8.54640489 7.7156945,8.41140884 L7.64644661,8.35355339 L6.64644661,7.35355339 C6.45118446,7.15829124 6.45118446,6.84170876 6.64644661,6.64644661 C6.82001296,6.47288026 7.08943736,6.45359511 7.2843055,6.58859116 L7.35355339,6.64644661 L8,7.293 L9.64644661,5.64644661 C9.84170876,5.45118446 10.1582912,5.45118446 10.3535534,5.64644661 Z"></path>
    </g>
</svg>

<svg xmlns="http://www.w3.org/2000/svg" width="16" height="16"><path fill-rule="evenodd" d="M15 0a1 1 0 0 1 .993.883L16 1v14a1 1 0 0 1-.883.993L15 16h-3a1 1 0 0 1-.117-1.993L12 14h2V2h-2a1 1 0 0 1-.993-.883L11 1a1 1 0 0 1 .883-.993L12 0h3ZM4 0a1 1 0 0 1 .117 1.993L4 2H2v12h2a1 1 0 0 1 .993.883L5 15a1 1 0 0 1-.883.993L4 16H1a1 1 0 0 1-.993-.883L0 15V1A1 1 0 0 1 .883.007L1 0h3Zm4 3a5 5 0 1 1 0 10A5 5 0 0 1 8 3Zm0 1a4 4 0 1 0 0 8 4 4 0 0 0 0-8Zm2.354 1.646a.5.5 0 0 1 .057.638l-.057.07-2 2a.5.5 0 0 1-.638.057l-.07-.057-1-1a.5.5 0 0 1 .638-.765l.07.057.646.647 1.646-1.647a.5.5 0 0 1 .708 0Z"/></svg>
